static/logos/betterUptime-wordmark-color.svg

<svg width="100" height="19" viewBox="0 0 100 19" fill="none" xmlns="http://www.w3.org/2000/svg">
<g clip-path="url(#clip0_1_3391)">
<path d="M26.5272 8.66917C27.4174 8.44361 27.9941 7.87967 27.9941 6.87712C27.9941 5.46102 27.0287 4.63391 24.609 4.63391H21.5625V13.4062H25.098C27.4675 13.4062 28.4705 12.341 28.4705 10.8873C28.4705 9.7093 27.8311 8.91981 26.5272 8.66917ZM24.747 5.99989C25.7499 5.99989 26.289 6.27561 26.289 7.0651C26.289 7.86717 25.7123 8.18046 24.9601 8.18046H23.2174V5.99989H24.747ZM25.1732 12.0403H23.2174V9.42108H25.1481C25.8878 9.42108 26.7278 9.64664 26.7278 10.7745C26.7278 11.6392 26.0759 12.0403 25.1732 12.0403Z" fill="#0E153A"/>
<path d="M32.236 6.61401C30.1674 6.61401 29.0391 8.06769 29.0391 10.0853C29.0391 12.0779 30.2552 13.5817 32.3363 13.5817C33.7154 13.5817 34.6933 13.0178 35.2951 12.0403L33.9912 11.3761C33.7029 11.915 33.1889 12.3034 32.4116 12.3034C31.3584 12.3034 30.7315 11.6769 30.6814 10.4613H35.3453V10.1354C35.3453 8.09276 34.2169 6.61401 32.236 6.61401ZM32.2235 7.84213C33.0885 7.84213 33.6276 8.3434 33.7029 9.37103H30.6939C30.7817 8.36848 31.3459 7.84213 32.2235 7.84213Z" fill="#0E153A"/>
<path d="M38.2653 5.13513L36.6605 5.74778V6.86451H35.7578V8.04253H36.6605V11.6893C36.6605 12.8297 37.1745 13.5816 38.6664 13.5816C39.2055 13.5816 39.6694 13.4939 40.0455 13.3686V12.1154C39.7572 12.1906 39.4187 12.2658 39.0551 12.2658C38.4533 12.2658 38.2653 12.0026 38.2653 11.4512V8.04253H39.9076V6.86451H38.2653V5.13513Z" fill="#0E153A"/>
<path d="M42.7575 5.13513L41.1527 5.74778V6.86451H40.25V8.04253H41.1527V11.6893C41.1527 12.8297 41.6667 13.5816 43.1587 13.5816C43.6977 13.5816 44.1617 13.4939 44.5377 13.3686V12.1154C44.2494 12.1906 43.9109 12.2658 43.5473 12.2658C42.9455 12.2658 42.7575 12.0026 42.7575 11.4512V8.04253H44.3998V6.86451H42.7575V5.13513Z" fill="#0E153A"/>
<path d="M48.1188 6.61401C46.0502 6.61401 44.9219 8.06769 44.9219 10.0853C44.9219 12.0779 46.138 13.5817 48.2191 13.5817C49.5983 13.5817 50.5762 13.0178 51.1779 12.0403L49.874 11.3761C49.5857 11.915 49.0717 12.3034 48.2944 12.3034C47.2412 12.3034 46.6144 11.6769 46.5643 10.4613H51.2281V10.1354C51.2281 8.09276 50.0997 6.61401 48.1188 6.61401ZM48.1063 7.84213C48.9714 7.84213 49.5105 8.3434 49.5857 9.37103H46.5768C46.6646 8.36848 47.2287 7.84213 48.1063 7.84213Z" fill="#0E153A"/>
<path d="M55.6867 6.61401C54.9721 6.61401 54.3201 7.01499 53.8688 7.87971V6.80199H52.2891V13.4062H53.8939V10.5365C53.8939 8.71936 54.6962 8.23059 55.7368 8.23059C55.8246 8.23059 55.9249 8.23059 56.138 8.24316V6.6516C56.0001 6.62652 55.8371 6.61401 55.6867 6.61401Z" fill="#0E153A"/>
<path d="M66.6037 4.63391H64.9358V10.2231C64.9358 11.5766 64.3341 12.2282 63.1179 12.2282C61.8896 12.2282 61.2879 11.6267 61.2879 10.2231V4.63391H59.6328V10.2607C59.6328 11.965 60.4603 13.6443 63.1058 13.6443C65.6881 13.6443 66.6037 11.9901 66.6037 10.2607V4.63391Z" fill="#0E153A"/>
<path d="M71.5511 6.61401C70.8492 6.61401 70.1467 6.86465 69.6458 7.50375V6.80199H68.0781V15.474H69.6835V12.7421C70.0842 13.2809 70.7363 13.5817 71.5262 13.5817C73.3319 13.5817 74.46 12.0779 74.46 10.0728C74.46 8.04261 73.2943 6.61401 71.5511 6.61401ZM71.188 7.92986C72.2159 7.92986 72.7928 8.73186 72.7928 10.0728C72.7928 11.5014 72.1285 12.2784 71.1753 12.2784C70.2852 12.2784 69.596 11.6017 69.596 10.0853C69.596 8.64413 70.2724 7.92986 71.188 7.92986Z" fill="#0E153A"/>
<path d="M77.4054 5.13513L75.8013 5.74778V6.86451H74.8984V8.04253H75.8013V11.6893C75.8013 12.8297 76.315 13.5816 77.8068 13.5816C78.3459 13.5816 78.8098 13.4939 79.1862 13.3686V12.1154C78.8978 12.1906 78.559 12.2658 78.1953 12.2658C77.5936 12.2658 77.4054 12.0026 77.4054 11.4512V8.04253H79.0478V6.86451H77.4054V5.13513Z" fill="#0E153A"/>
<path d="M80.8459 3.83179C80.3189 3.83179 79.8672 4.25786 79.8672 4.7842C79.8672 5.31055 80.3189 5.73664 80.8459 5.73664C81.3717 5.73664 81.8235 5.31055 81.8235 4.7842C81.8235 4.25786 81.3717 3.83179 80.8459 3.83179ZM81.648 6.80183H80.0433V13.4061H81.648V6.80183Z" fill="#0E153A"/>
<path d="M90.4511 6.61401C89.6491 6.61401 88.8598 6.92731 88.3582 7.70424C88.0449 7.01499 87.4299 6.61401 86.5149 6.61401C85.7754 6.61401 85.1737 6.90223 84.697 7.5539V6.80199H83.1172V13.4062H84.7225V9.68432C84.7225 8.6692 85.2866 7.97995 86.051 7.97995C86.9162 7.97995 87.054 8.58147 87.054 9.82215V13.4062H88.6588V9.68432C88.6588 8.6692 89.2107 7.97995 89.9751 7.97995C90.8276 7.97995 90.9909 8.58147 90.9909 9.82215V13.4062H92.5956V9.15797C92.5956 7.5539 91.881 6.61401 90.4511 6.61401Z" fill="#0E153A"/>
<path d="M96.8373 6.61401C94.7687 6.61401 93.6406 8.06769 93.6406 10.0853C93.6406 12.0779 94.8568 13.5817 96.9375 13.5817C98.3164 13.5817 99.2945 13.0178 99.8962 12.0403L98.5927 11.3761C98.3043 11.915 97.79 12.3034 97.0122 12.3034C95.96 12.3034 95.3328 11.6769 95.2824 10.4613H99.9466V10.1354C99.9466 8.09276 98.8179 6.61401 96.8373 6.61401ZM96.8246 7.84213C97.6898 7.84213 98.229 8.3434 98.3043 9.37103H95.2951C95.3826 8.36848 95.9466 7.84213 96.8246 7.84213Z" fill="#0E153A"/>
<path d="M8.3282 9.22894V0.746667C8.3282 0.0911898 7.50464 -0.201086 7.0911 0.307641L0.196317 8.7899C-0.173514 9.24491 0.150403 9.92517 0.736894 9.92517H7.63166C8.01636 9.92517 8.3282 9.61345 8.3282 9.22894Z" fill="url(#paint0_linear_1_3391)"/>
<path d="M14.5209 8.53271H7.62617C7.24147 8.53271 6.92969 8.84443 6.92969 9.22895V17.7112C6.92969 18.3667 7.75319 18.6589 8.16673 18.1502L15.0615 9.66799C15.4314 9.21292 15.1074 8.53271 14.5209 8.53271Z" fill="#0E153A"/>
</g>
<defs>
<linearGradient id="paint0_linear_1_3391" x1="3.45261" y1="1.22248" x2="9.369" y2="12.364" gradientUnits="userSpaceOnUse">
<stop stop-color="#BCBECD"/>
<stop offset="1" stop-color="#BCBECD" stop-opacity="0"/>
</linearGradient>
<clipPath id="clip0_1_3391">
<rect width="100" height="18.4578" fill="white"/>
</clipPath>
</defs>
</svg>

<svg xmlns="http://www.w3.org/2000/svg" width="336.842" height="64" fill="none" viewBox="0 0 100 19"><g clip-path="url(#a)"><path fill="#0E153A" d="M26.527 8.67c.89-.226 1.467-.79 1.467-1.793 0-1.416-.965-2.243-3.385-2.243h-3.047v8.772h3.536c2.37 0 3.373-1.065 3.373-2.519 0-1.178-.64-1.967-1.944-2.218ZM24.747 6c1.003 0 1.542.276 1.542 1.065 0 .802-.577 1.115-1.329 1.115h-1.743V6h1.53Zm.426 6.04h-1.956V9.421h1.931c.74 0 1.58.226 1.58 1.354 0 .864-.652 1.265-1.555 1.265ZM32.236 6.614c-2.069 0-3.197 1.454-3.197 3.471 0 1.993 1.216 3.497 3.297 3.497 1.38 0 2.357-.564 2.96-1.542l-1.305-.664c-.288.539-.802.927-1.58.927-1.053 0-1.68-.626-1.73-1.842h4.664v-.326c0-2.042-1.128-3.521-3.109-3.521Zm-.012 1.228c.865 0 1.404.501 1.479 1.529h-3.01c.089-1.003.653-1.529 1.53-1.529ZM38.265 5.135l-1.605.613v1.117h-.902v1.178h.902v3.646c0 1.14.515 1.893 2.006 1.893.54 0 1.003-.088 1.38-.213v-1.254c-.289.076-.627.15-.99.15-.603 0-.79-.262-.79-.814V8.043h1.642V6.865h-1.643v-1.73ZM42.758 5.135l-1.605.613v1.117h-.903v1.178h.903v3.646c0 1.14.514 1.893 2.006 1.893.539 0 1.003-.088 1.379-.213v-1.254c-.289.076-.627.15-.99.15-.602 0-.79-.262-.79-.814V8.043H44.4V6.865h-1.642v-1.73ZM48.119 6.614c-2.069 0-3.197 1.454-3.197 3.471 0 1.993 1.216 3.497 3.297 3.497 1.38 0 2.357-.564 2.959-1.542l-1.304-.664c-.288.539-.802.927-1.58.927-1.053 0-1.68-.626-1.73-1.842h4.664v-.326c0-2.042-1.128-3.521-3.11-3.521Zm-.013 1.228c.865 0 1.404.501 1.48 1.529h-3.01c.089-1.003.653-1.529 1.53-1.529ZM55.687 6.614c-.715 0-1.367.401-1.818 1.266V6.802h-1.58v6.604h1.605v-2.87c0-1.817.802-2.305 1.843-2.305.088 0 .188 0 .401.012V6.652a2.63 2.63 0 0 0-.451-.038ZM66.604 4.634h-1.668v5.59c0 1.353-.602 2.004-1.818 2.004-1.228 0-1.83-.601-1.83-2.005v-5.59h-1.655v5.628c0 1.704.827 3.383 3.473 3.383 2.582 0 3.498-1.654 3.498-3.383V4.634ZM71.551 6.614c-.702 0-1.404.25-1.905.89v-.702h-1.568v8.672h1.605v-2.732c.401.539 1.053.84 1.843.84 1.806 0 2.934-1.504 2.934-3.51 0-2.03-1.166-3.458-2.909-3.458Zm-.363 1.316c1.028 0 1.605.802 1.605 2.143 0 1.428-.665 2.205-1.618 2.205-.89 0-1.579-.676-1.579-2.193 0-1.44.676-2.155 1.592-2.155ZM77.405 5.135l-1.604.613v1.117h-.903v1.178h.903v3.646c0 1.14.514 1.893 2.006 1.893.539 0 1.003-.088 1.38-.213v-1.254c-.29.076-.628.15-.992.15-.601 0-.79-.262-.79-.814V8.043h1.643V6.865h-1.643v-1.73ZM80.846 3.832c-.527 0-.979.426-.979.952 0 .527.452.953.979.953.526 0 .977-.426.977-.953 0-.526-.451-.952-.977-.952Zm.802 2.97h-1.605v6.604h1.605V6.802ZM90.451 6.614c-.802 0-1.591.313-2.093 1.09-.313-.689-.928-1.09-1.843-1.09-.74 0-1.341.288-1.818.94v-.752h-1.58v6.604h1.605V9.684c0-1.015.565-1.704 1.329-1.704.865 0 1.003.601 1.003 1.842v3.584h1.605V9.684c0-1.015.552-1.704 1.316-1.704.853 0 1.016.601 1.016 1.842v3.584h1.605V9.158c0-1.604-.715-2.544-2.145-2.544ZM96.837 6.614c-2.068 0-3.196 1.454-3.196 3.471 0 1.993 1.216 3.497 3.296 3.497 1.38 0 2.358-.564 2.96-1.542l-1.304-.664c-.289.539-.803.927-1.58.927-1.053 0-1.68-.626-1.73-1.842h4.664v-.326c0-2.042-1.13-3.521-3.11-3.521Zm-.012 1.228c.865 0 1.404.501 1.48 1.529h-3.01c.088-1.003.652-1.529 1.53-1.529Z"/><path fill="url(#b)" d="M8.328 9.229V.747c0-.656-.823-.948-1.237-.44L.196 8.79a.696.696 0 0 0 .54 1.135h6.896a.696.696 0 0 0 .696-.696Z"/><path fill="#0E153A" d="M14.52 8.533H7.627a.696.696 0 0 0-.696.696v8.482c0 .656.823.948 1.237.44l6.895-8.483a.696.696 0 0 0-.541-1.135Z"/></g><defs><linearGradient id="b" x1="3.453" x2="9.369" y1="1.222" y2="12.364" gradientUnits="userSpaceOnUse"><stop stop-color="#BCBECD"/><stop offset="1" stop-color="#BCBECD" stop-opacity="0"/></linearGradient><clipPath id="a"><path fill="#fff" d="M0 0h100v18.458H0z"/></clipPath></defs></svg>
